**kern	**silbe
*ICvox	*
*C:	*
*M12/8	*
*clefF4	*
r;	.
=1	=1
[2.c	Oh
4.c_	_
8c]	_
8d	my
8c	_
=2	=2
8e	love
8d	_
[8c	_
2.c_	_
4c]	_
[8d	my
=3	=3
8d]	_
12d	dar
12c	_
12B	_
2.c	ling
4r	.
8c	I've
=4	=4
[4.G	hung-
4G]	_
8B	-ered
[4.d	for
4d]	_
[8e	your
=5	=5
4e]	_
16e	_
16d	_
8c	_
8d	_
[8c	touch
4c]	_
8r	.
4r	.
16r	.
16d	a
=6	=6
[2.c	long
4.c]	_
4E	lone-
8F	-ly
=7	=7
[2.G	time
4.G]	_
4.r	.
=8	=8
2.r	.
4.r	.
4r	.
8G	and
=9	=9
[2.c	time
4.c_	_
4c]	_
[8e	goes
=10	=10
8e]	_
12e	_
12d	_
12c	_
16d	by
[16c	_
4c_	_
4.c]	_
8r	.
8r	.
[8d	so
=11	=11
8d]	_
12e	slow-
12d	_
12c	_
8d	-ly
8c	_
[8A	_
4.A]	_
8r	.
8r	.
8A	and
=12	=12
[4.G	time
4G]	_
8G	can
[4.e	do
4e]	_
8d	so
=13	=13
4c	much
8r	.
4.r	.
4r	.
[8e	are
8.e]	_
16d	_
16e	_
16d	_
=14	=14
8c	_
12e	you
12d	_
[12c	_
2.c]	_
4r	.
8c	still
=15	=15
[1.g	mine
=16	=16
4.g]	_
8r	.
16f	I
16g	_
8f	_
16f	_
16g	_
4f	_
16f	_
16g	_
8f	_
8d	_
=17	=17
16e	_
16f	_
4e	_
8r	.
16e	need
16d	_
16e	_
[16c	_
4c]	_
8r	.
4r	.
[8c	your
=18	=18
4c]	_
8c	love
2.G	_
4.r	.
=19	=19
16d	I
[16e	_
4e]	_
16d	_
16e	_
16d	_
8.c	_
16d	_
[16c	_
4c_	_
4.c]	_
=20	=20
8c	need
8G	your
8G	love
4.E	_
4.r	.
4.c	God-
=21	=21
[4.A	-speed
4A]	_
8F	your
8F	love
[4D	_
4.D]	_
=22	=22
[4.d	to
8d]	_
8e	_
8d	_
8e	_
4g	_
8a	_
8r	.
[8e	me
=23	=23
8e]	_
8d	_
16c	_
16d	_
4.c	_
4.r	.
4.r	.
=24	=24
1.r	.
=25	=25
8.F	Lone-
8.G	-ly
8r	.
8A	ri-
8c	-vers
4.B	flow
8r	.
8c	to
8B	the
=26	=26
4.A	sea
8r	.
8F	to
8A	the
4.G	sea
4.r	.
=27	=27
8.F	to
8.G	the
8r	.
8A	o-
8c	-pen
4.d	arms
8r	.
8d	of
8c	the
=28	=28
8e	sea
8e	_
[8g	_
8g]	_
8g	_
8a	_
8e	yeah
8e	_
8e	_
8d	_
4c	_
=29	=29
8.F	Lone-
8.G	-ly
8r	.
8A	ri-
8c	-vers
4.B	sigh
8.r	.
8c	wait
16B	for
=30	=30
4.A	me
8r	.
8F	wait
8A	for
4.G	me
4.r	.
=31	=31
8.F	I'll
8.G	be
8r	.
8A	com-
8c	-ing
4.d	home
8.r	.
8e	wait
16d	for
=32	=32
8.e	me
[8.e	_
8e]	_
8d	_
16c	_
16d	_
4.c	_
4.r	.
=33	=33
[2.c	Whoa
4c]	_
[8e	my
8e]	_
16d	_
16e	_
16d	_
16c	_
=34	=34
8d	love
[4c	_
2.c]	_
4r	.
[8d	my
=35	=35
8d]	_
12e	dar-
12d	_
12c	_
2.c	-ling
4r	.
8c	I've
=36	=36
8d	hung-
16d	-ered
16c	_
8B	_
4.r	.
8a	hung-
16g	-ered
16a	_
8g	_
8.f	_
8f	for
16f	your
=37	=37
8.e	touch
8.e	_
8e	_
16d	_
8c	_
16d	_
16e	_
16g	_
8e	_
8r	.
8r	.
12e	a
12d	_
12c	_
=38	=38
8d	long
[4c	_
2.c]	_
4E	lone-
8F	-ly
=39	=39
[2.G	time
4.G]	_
4.r	.
=40	=40
2.r	.
4.r	.
4r	.
8G	and
=41	=41
8.e	time
[8.e	_
4e]	_
8d	_
4.c	_
4r	.
[8e	goes
=42	=42
8e]	_
[4e	_
8e]	_
16d	_
16e	_
16d	_
16c	_
8d	by
4c	_
8r	.
8r	.
[8d	so
=43	=43
8d]	_
12e	slow-
12d	_
12c	_
8d	-ly
8c	_
[8A	_
4.A]	_
8r	.
8r	.
8c	and
=44	=44
[4.G	time
4G]	_
8B	can
[4.d	do
4d]	_
[8e	so
=45	=45
8e]	_
4c	_
8c	much
8r	.
8r	.
4.r	.
8r	.
8r	.
8d	are
=46	=46
2.c	you
4.r	.
8r	.
8r	.
8c	still
=47	=47
1.g	mine
=48	=48
2.r	.
4.r	.
8a	I
8g	_
8f	_
=49	=49
4g	_
[8ee	need
4ee]	_
8cc	_
4.g	_
8.r	.
8.a	your
=50	=50
4g	love
8a	_
4.r	.
8r	.
8r	.
8e	I
16e	_
8.d	_
16c	_
16d	_
=51	=51
16e	_
16d	_
16c	_
16d	_
[8c	_
4.c]	_
4.r	.
8c	I
16c	real-
8.c	-ly
=52	=52
8B	need
8G	your
8G	love
4.E	_
4.r	.
4.B	God-
=53	=53
[4.A	-speed
4A]	_
8F	your
8F	love
4D	_
4.r	.
=54	=54
[4.d	to
8d]	_
8e	_
8d	_
8e	_
4g	_
8a	_
4r	.
=55	=55
[2.cc	me
4.cc]	_
8b	_
8cc	_
8dd	_
=56	=56
[2.cc	_
4.cc]	_
8cc	_
8dd	_
8ee	_
=57	=57
[2.ff	_
4.ff]	_
4.ff	_
=58	=58
1.gg	_
r;	.
r;	.
*-	*-
!!!ENC: Nathaniel Condit-Schultz
!!!MBID: 4d78b3d1-42a2-4a50-8475-29e7cf5b5e64
